X: 4739
T: Boys Of Bally Cunneen, The
R: reel
M: 4/4
K: Gmajor
|:B|d2 Bd gdBd|cBAF DFAF|GBdg e3 g|fdcA GABc|
d2 Bd gdBd|cBAF DFAF|GBdg eceg|fdcA G3:|
|:B/d/|g3 bgag|egdB GABd|g3 a bgag|egdB BA A2|
g3 a bgag|egdB GBdB|c2 AF DFAc|BGAF G3:|

